src/images/v2/milvus-logo.svg

<svg fill="none" height="35" viewBox="0 0 148 35" width="148" xmlns="http://www.w3.org/2000/svg"><g fill="#12c3f4"><path d="m35.2688 5.48219c-6.6189-6.64292-17.3519-6.64292-23.9708 0l-10.818369 10.85731c-.639508.6426-.639508 1.6771 0 2.3196l10.818369 10.8574c6.6189 6.6429 17.3519 6.6429 23.9708.0109 6.6296-6.6321 6.6296-17.4023 0-24.04521zm-2.558 20.85441c-4.8603 4.8787-12.7475 4.8787-17.6078 0l-7.96183-7.9824c-.46898-.4683-.46898-1.2306 0-1.7097l7.95123-7.97153c4.8602-4.87874 12.7475-4.87874 17.6077 0 4.871 4.87873 4.871 12.78493.0107 17.66363z"/><path d="m49.4439 16.3504-4.7643-4.8678c-.2878-.2941-.7674-.0218-.6715.3811.8207 3.7135.8207 7.5904 0 11.3039-.0853.4029.3943.6643.6715.3811l4.7643-4.8678c.6288-.6534.6288-1.688 0-2.3305z"/><path d="m23.9598 26.0426c4.6092 0 8.3456-3.8176 8.3456-8.5269 0-4.7092-3.7364-8.52687-8.3456-8.52687-4.6091 0-8.3455 3.81767-8.3455 8.52687 0 4.7093 3.7364 8.5269 8.3455 8.5269z"/><path d="m59.4233 17.7266c0-.9069.1531-1.6887.4591-2.3454.3061-.6567.7346-1.2196 1.2855-1.6887.551-.469 1.1937-.813 1.9283-1.0319.7346-.219 1.5609-.344 2.4179-.344 1.0713 0 2.0201.1876 2.8771.5629.8264.3752 1.5304.8756 2.0507 1.5323.5203-.6567 1.1936-1.1571 2.02-1.5323.8264-.3753 1.7752-.5629 2.8465-.5629.857 0 1.6528.125 2.3873.344.7346.2189 1.3774.5629 1.9283 1.0319.5509.4691.9794 1.032 1.2855 1.6887s.4591 1.4385.4591 2.3454v8.9438h-4.3156v-7.6929c0-.9382-.1836-1.5949-.5509-2.0014s-.8876-.5942-1.5916-.5942-1.2549.2502-1.714.7193c-.4285.4691-.6427 1.2196-.6427 2.2828v7.3177h-4.3156v-7.3177c0-1.0319-.2143-1.7825-.6428-2.2828-.4285-.4691-.9794-.7193-1.6834-.7193-.6733 0-1.2242.1877-1.5915.5942-.3979.4065-.5816 1.0632-.5816 2.0014v7.6929h-4.3156z"/><path d="m84.9497 8.97049c0-.68798.2143-1.28214.6734-1.75122s1.01-.71927 1.714-.71927c.6733 0 1.2548.25019 1.714.71927.4591.46908.7039 1.06324.7039 1.75122 0 .68799-.2448 1.28221-.7039 1.75121-.4592.4691-1.0407.688-1.714.688-.6734 0-1.2549-.2189-1.714-.688-.4285-.5003-.6734-1.06322-.6734-1.75121zm.2449 5.69151c0-.7193.2142-1.2196.6121-1.5011.3979-.2814.9488-.4378 1.6222-.4378.4897 0 .9182.0626 1.3161.1877s.6427.1876.7652.2189v13.572h-4.3156z"/><path d="m93.4893 8.43887c0-.71925.2142-1.2196.6121-1.50105s.9488-.43782 1.6222-.43782c.4897 0 .9182.06255 1.3161.18764.3979.12508.6427.18763.7652.2189v19.76396h-4.3156z"/><path d="m105.701 26.6704c-.551-1.0007-1.102-2.0327-1.622-3.0959-.521-1.0633-1.01-2.064-1.439-2.9709-.428-.9069-.796-1.7199-1.071-2.3454-.276-.6567-.459-1.0632-.551-1.2509-.153-.3752-.306-.7818-.459-1.2196-.184-.469-.245-.8756-.245-1.2196 0-.5003.184-.9381.551-1.3134.367-.344.887-.5316 1.622-.5316.582 0 1.041.0625 1.408.1876s.551.1877.612.2189c.306.9069.612 1.8138.98 2.7207.336.9069.673 1.7512.979 2.533s.582 1.4698.857 2.064c.245.5941.428 1.0007.551 1.2509.122-.2502.275-.6568.52-1.2197s.49-1.2196.765-1.9075c.276-.688.551-1.4073.827-2.0953.275-.688.52-1.3134.704-1.7825.122-.2814.214-.5316.367-.7818.122-.2502.306-.4378.49-.6254.183-.1877.428-.3127.673-.4066.276-.0938.612-.125.98-.125.367 0 .673.0312.979.125.275.0626.551.1564.765.2502s.398.1876.52.2502c.123.0938.215.1251.245.1564-.061.3439-.245.813-.52 1.501-.275.6567-.582 1.4385-.949 2.2829-.367.8443-.765 1.7512-1.194 2.6894-.428.9381-.857 1.845-1.254 2.7206-.398.8757-.796 1.6574-1.163 2.3767-.368.688-.643 1.2509-.827 1.6262h-4.101z"/><path d="m122.259 20.1658c0 1.9076.827 2.8458 2.51 2.8458 1.684 0 2.51-.9382 2.51-2.8458v-5.5039c0-.7192.214-1.2196.612-1.501.398-.2815.949-.4378 1.622-.4378.49 0 .919.0625 1.316.1876.398.1251.643.1877.766.2189v7.8493c0 1.032-.184 1.9076-.521 2.6581-.336.7506-.826 1.376-1.438 1.8763-.612.5004-1.316.8757-2.173 1.1258-.827.2502-1.745.3753-2.694.3753-.979 0-1.867-.1251-2.693-.3753-.827-.2501-1.561-.6254-2.173-1.1258-.612-.5003-1.072-1.1257-1.439-1.8763-.337-.7505-.52-1.6574-.52-2.6581v-6.317c0-.7192.214-1.2196.612-1.501.398-.2815.949-.4378 1.622-.4378.49 0 .918.0625 1.316.1876s.643.1877.765.2189z"/><path d="m135.972 22.4174c.153.1251.367.2502.704.4066.336.1563.734.3127 1.193.4378s.98.2501 1.561.344c.582.0938 1.194.1563 1.837.1563.734 0 1.285-.0625 1.652-.2189.368-.1251.551-.3752.551-.7192 0-.3753-.153-.6255-.459-.7506-.306-.125-.796-.2501-1.469-.344l-1.408-.1563c-.704-.0938-1.377-.2189-2.02-.4066-.643-.1876-1.224-.4378-1.714-.7818-.49-.3439-.888-.7818-1.163-1.3134s-.428-1.1883-.428-2.0014c0-.688.122-1.3134.367-1.8763s.612-1.0633 1.132-1.5011c.521-.4378 1.194-.7818 1.99-1.0007.796-.2501 1.775-.3752 2.877-.3752 1.132 0 2.081.0625 2.907.2189.827.1563 1.5.3752 2.112.688.337.1876.612.4065.827.6567.214.2501.306.5941.306.9694 0 .2814-.061.5629-.184.7818-.122.2189-.245.4378-.398.5942-.153.1563-.306.2814-.428.3752-.123.0939-.214.1564-.245.1564-.061-.0626-.214-.1564-.429-.3127-.244-.1564-.55-.2815-.979-.4378-.398-.1251-.888-.2502-1.439-.3753-.55-.1251-1.193-.1564-1.928-.1564-.796 0-1.377.0939-1.683.2815s-.459.4378-.459.7505.153.5316.428.6567c.276.1251.704.2502 1.286.344l2.448.344c.612.0938 1.194.2189 1.745.4065.551.1877 1.071.4379 1.5.7506.428.344.795.7505 1.04 1.2509.245.5003.398 1.1257.398 1.8763 0 1.5323-.581 2.7206-1.714 3.5963-1.132.8443-2.724 1.2821-4.744 1.2821-1.041 0-1.989-.0625-2.816-.2189-.826-.1563-1.5-.3127-2.112-.5003-.581-.1877-1.071-.4066-1.438-.5942-.367-.2189-.612-.3753-.765-.4691z"/></g></svg>

<svg width="148" height="35" viewBox="0 0 148 35" fill="none" xmlns="http://www.w3.org/2000/svg">
<path d="M35.2688 5.48219C28.6499 -1.16073 17.9169 -1.16073 11.298 5.48219L0.479631 16.3395C-0.159877 16.9821 -0.159877 18.0166 0.479631 18.6591L11.298 29.5165C17.9169 36.1594 28.6499 36.1594 35.2688 29.5274C41.8984 22.8953 41.8984 12.1251 35.2688 5.48219ZM32.7108 26.3366C27.8505 31.2153 19.9633 31.2153 15.103 26.3366L7.14117 18.3542C6.67219 17.8859 6.67219 17.1236 7.14117 16.6445L15.0924 8.67297C19.9526 3.79423 27.8399 3.79423 32.7001 8.67297C37.5711 13.5517 37.5711 21.4579 32.7108 26.3366Z" fill="#12C3F4"/>
<path d="M49.4439 16.3504L44.6796 11.4826C44.3918 11.1885 43.9122 11.4608 44.0081 11.8637C44.8288 15.5772 44.8288 19.4541 44.0081 23.1676C43.9228 23.5705 44.4024 23.8319 44.6796 23.5487L49.4439 18.6809C50.0727 18.0275 50.0727 16.9929 49.4439 16.3504Z" fill="#12C3F4"/>
<path d="M23.9598 26.0426C28.569 26.0426 32.3054 22.225 32.3054 17.5157C32.3054 12.8065 28.569 8.98883 23.9598 8.98883C19.3507 8.98883 15.6143 12.8065 15.6143 17.5157C15.6143 22.225 19.3507 26.0426 23.9598 26.0426Z" fill="#12C3F4"/>
<path d="M59.4233 17.7266C59.4233 16.8197 59.5764 16.0379 59.8824 15.3812C60.1885 14.7245 60.617 14.1616 61.1679 13.6925C61.7189 13.2235 62.3616 12.8795 63.0962 12.6606C63.8308 12.4416 64.6571 12.3166 65.5141 12.3166C66.5854 12.3166 67.5342 12.5042 68.3912 12.8795C69.2176 13.2547 69.9216 13.7551 70.4419 14.4118C70.9622 13.7551 71.6355 13.2547 72.4619 12.8795C73.2883 12.5042 74.2371 12.3166 75.3084 12.3166C76.1654 12.3166 76.9612 12.4416 77.6957 12.6606C78.4303 12.8795 79.0731 13.2235 79.624 13.6925C80.1749 14.1616 80.6034 14.7245 80.9095 15.3812C81.2156 16.0379 81.3686 16.8197 81.3686 17.7266V26.6704H77.053V18.9775C77.053 18.0393 76.8694 17.3826 76.5021 16.9761C76.1348 16.5696 75.6145 16.3819 74.9105 16.3819C74.2065 16.3819 73.6556 16.6321 73.1965 17.1012C72.768 17.5703 72.5538 18.3208 72.5538 19.384V26.7017H68.2382V19.384C68.2382 18.3521 68.0239 17.6015 67.5954 17.1012C67.1669 16.6321 66.616 16.3819 65.912 16.3819C65.2387 16.3819 64.6878 16.5696 64.3205 16.9761C63.9226 17.3826 63.7389 18.0393 63.7389 18.9775V26.6704H59.4233V17.7266Z" fill="#12C3F4"/>
<path d="M84.9497 8.97049C84.9497 8.28251 85.164 7.68835 85.6231 7.21927C86.0822 6.75019 86.6331 6.5 87.3371 6.5C88.0104 6.5 88.5919 6.75019 89.0511 7.21927C89.5102 7.68835 89.755 8.28251 89.755 8.97049C89.755 9.65848 89.5102 10.2527 89.0511 10.7217C88.5919 11.1908 88.0104 11.4097 87.3371 11.4097C86.6637 11.4097 86.0822 11.1908 85.6231 10.7217C85.1946 10.2214 84.9497 9.65848 84.9497 8.97049ZM85.1946 14.662C85.1946 13.9427 85.4088 13.4424 85.8067 13.1609C86.2046 12.8795 86.7555 12.7231 87.4289 12.7231C87.9186 12.7231 88.3471 12.7857 88.745 12.9108C89.1429 13.0359 89.3877 13.0984 89.5102 13.1297V26.7017H85.1946V14.662Z" fill="#12C3F4"/>
<path d="M93.4893 8.43887C93.4893 7.71962 93.7035 7.21927 94.1014 6.93782C94.4993 6.65637 95.0502 6.5 95.7236 6.5C96.2133 6.5 96.6418 6.56255 97.0397 6.68764C97.4376 6.81272 97.6824 6.87527 97.8049 6.90654V26.6705H93.4893V8.43887Z" fill="#12C3F4"/>
<path d="M105.701 26.6704C105.15 25.6697 104.599 24.6377 104.079 23.5745C103.558 22.5112 103.069 21.5105 102.64 20.6036C102.212 19.6967 101.844 18.8837 101.569 18.2582C101.293 17.6015 101.11 17.195 101.018 17.0073C100.865 16.6321 100.712 16.2255 100.559 15.7877C100.375 15.3187 100.314 14.9121 100.314 14.5681C100.314 14.0678 100.498 13.63 100.865 13.2547C101.232 12.9107 101.752 12.7231 102.487 12.7231C103.069 12.7231 103.528 12.7856 103.895 12.9107C104.262 13.0358 104.446 13.0984 104.507 13.1296C104.813 14.0365 105.119 14.9434 105.487 15.8503C105.823 16.7572 106.16 17.6015 106.466 18.3833C106.772 19.1651 107.048 19.8531 107.323 20.4473C107.568 21.0414 107.751 21.448 107.874 21.6982C107.996 21.448 108.149 21.0414 108.394 20.4785C108.639 19.9156 108.884 19.2589 109.159 18.571C109.435 17.883 109.71 17.1637 109.986 16.4757C110.261 15.7877 110.506 15.1623 110.69 14.6932C110.812 14.4118 110.904 14.1616 111.057 13.9114C111.179 13.6612 111.363 13.4736 111.547 13.286C111.73 13.0983 111.975 12.9733 112.22 12.8794C112.496 12.7856 112.832 12.7544 113.2 12.7544C113.567 12.7544 113.873 12.7856 114.179 12.8794C114.454 12.942 114.73 13.0358 114.944 13.1296C115.158 13.2234 115.342 13.3172 115.464 13.3798C115.587 13.4736 115.679 13.5049 115.709 13.5362C115.648 13.8801 115.464 14.3492 115.189 15.0372C114.914 15.6939 114.607 16.4757 114.24 17.3201C113.873 18.1644 113.475 19.0713 113.046 20.0095C112.618 20.9476 112.189 21.8545 111.792 22.7301C111.394 23.6058 110.996 24.3875 110.629 25.1068C110.261 25.7948 109.986 26.3577 109.802 26.733H105.701V26.6704Z" fill="#12C3F4"/>
<path d="M122.259 20.1658C122.259 22.0734 123.086 23.0116 124.769 23.0116C126.453 23.0116 127.279 22.0734 127.279 20.1658V14.6619C127.279 13.9427 127.493 13.4423 127.891 13.1609C128.289 12.8794 128.84 12.7231 129.513 12.7231C130.003 12.7231 130.432 12.7856 130.829 12.9107C131.227 13.0358 131.472 13.0984 131.595 13.1296V20.9789C131.595 22.0109 131.411 22.8865 131.074 23.637C130.738 24.3876 130.248 25.013 129.636 25.5133C129.024 26.0137 128.32 26.389 127.463 26.6391C126.636 26.8893 125.718 27.0144 124.769 27.0144C123.79 27.0144 122.902 26.8893 122.076 26.6391C121.249 26.389 120.515 26.0137 119.903 25.5133C119.291 25.013 118.831 24.3876 118.464 23.637C118.127 22.8865 117.944 21.9796 117.944 20.9789V14.6619C117.944 13.9427 118.158 13.4423 118.556 13.1609C118.954 12.8794 119.505 12.7231 120.178 12.7231C120.668 12.7231 121.096 12.7856 121.494 12.9107C121.892 13.0358 122.137 13.0984 122.259 13.1296V20.1658Z" fill="#12C3F4"/>
<path d="M135.972 22.4174C136.125 22.5425 136.339 22.6676 136.676 22.824C137.012 22.9803 137.41 23.1367 137.869 23.2618C138.328 23.3869 138.849 23.5119 139.43 23.6058C140.012 23.6996 140.624 23.7621 141.267 23.7621C142.001 23.7621 142.552 23.6996 142.919 23.5432C143.287 23.4181 143.47 23.168 143.47 22.824C143.47 22.4487 143.317 22.1985 143.011 22.0734C142.705 21.9484 142.215 21.8233 141.542 21.7294L140.134 21.5731C139.43 21.4793 138.757 21.3542 138.114 21.1665C137.471 20.9789 136.89 20.7287 136.4 20.3847C135.91 20.0408 135.512 19.6029 135.237 19.0713C134.962 18.5397 134.809 17.883 134.809 17.0699C134.809 16.3819 134.931 15.7565 135.176 15.1936C135.421 14.6307 135.788 14.1303 136.308 13.6925C136.829 13.2547 137.502 12.9107 138.298 12.6918C139.094 12.4417 140.073 12.3166 141.175 12.3166C142.307 12.3166 143.256 12.3791 144.082 12.5355C144.909 12.6918 145.582 12.9107 146.194 13.2235C146.531 13.4111 146.806 13.63 147.021 13.8802C147.235 14.1303 147.327 14.4743 147.327 14.8496C147.327 15.131 147.266 15.4125 147.143 15.6314C147.021 15.8503 146.898 16.0692 146.745 16.2256C146.592 16.3819 146.439 16.507 146.317 16.6008C146.194 16.6947 146.103 16.7572 146.072 16.7572C146.011 16.6946 145.858 16.6008 145.643 16.4445C145.399 16.2881 145.093 16.163 144.664 16.0067C144.266 15.8816 143.776 15.7565 143.225 15.6314C142.675 15.5063 142.032 15.475 141.297 15.475C140.501 15.475 139.92 15.5689 139.614 15.7565C139.308 15.9441 139.155 16.1943 139.155 16.507C139.155 16.8197 139.308 17.0386 139.583 17.1637C139.859 17.2888 140.287 17.4139 140.869 17.5077L143.317 17.8517C143.929 17.9455 144.511 18.0706 145.062 18.2582C145.613 18.4459 146.133 18.6961 146.562 19.0088C146.99 19.3528 147.357 19.7593 147.602 20.2597C147.847 20.76 148 21.3854 148 22.136C148 23.6683 147.419 24.8566 146.286 25.7323C145.154 26.5766 143.562 27.0144 141.542 27.0144C140.501 27.0144 139.553 26.9519 138.726 26.7955C137.9 26.6392 137.226 26.4828 136.614 26.2952C136.033 26.1075 135.543 25.8886 135.176 25.701C134.809 25.4821 134.564 25.3257 134.411 25.2319L135.972 22.4174Z" fill="#12C3F4"/>
</svg>
